X:1
T:I Love to Tell the Story
T:Text: A. Catherine Hankey (1834-1911) Tune: William G. Fischer (1835-1912)
T:76 76D Refrain HANKEY www.hymnary.org/text/i_love_to_tell_the_story_of_unseen_thing
T:I Love to Tell the Story
T:This hymn is in the public domain.  You may freely use this score for personal and congregational worship.  If you reproduce the score, please credit Hymnary.org as the source. 
T:This hymn is in the public domain.  You may freely use this score for personal and congregational worship.  If you reproduce the score, please credit Hymnary.org as the source. 
T:This hymn is in the public domain.  You may freely use this score for personal and congregational worship.  If you reproduce the score, please credit Hymnary.org as the source. 
Z:This hymn is in the public domain.  You may freely use this score for personal and congregational worship.  If you reproduce the score, please credit Hymnary.org as the source.
%%score ( 1 2 ) ( 3 4 )
L:1/8
M:4/4
K:G
V:1 treble nm="Piano" snm="Pno."
V:2 treble 
V:3 bass nm="Piano" snm="Pno."
V:4 bass 
V:1
 [B,D]2 | [B,G]3 [B,D] [B,D]2 [B,G]2 | (([DB]3 [CA])) [B,G]2 [DG]2 | [EG]3 [CE] AG [CE]2 | %4
w: 3~I|love to tell the|sto- * ry, for|those who know _ it|
w: 1~I|love to tell the|sto- * ry of|un- seen things _ a-|
w: 2~I|love to tell the|sto- * ry, 'tis|plea- sant to _ re-|
 [B,D]6 D2 | [FA]3 [^E^G] [FA]2 [FB]2 | [DA]2 [D=G]4 GB | [Gd]3 [DB] BA [DG]2 | [FA]6 [DA]2 | %9
w: best seem|hun- ge- ring and|thir- sting to _|hear it like _ the|rest. And|
w: bove, of|Je- sus and his|glo- ry, of _|Je- sus and _ his|love. I|
w: peat what|seems, each time I|tell it, more _|won- der- ful- * ly|sweet. I|
 [DA]3 [DB] [Dc]2 [Dc]2 | [Dc]2 [DB]4 [DB]2 | [GB]3 [FA] [EG]2 [FA][EG] | [^DF]6 [DF]2 | %13
w: when in scenes of|glo- ry I|sing the new, new _|song, 'twill|
w: love to tell the|sto- ry be-|cause I know 'tis _|true; it|
w: love to tell the|sto- ry, for|some have ne- ver _|heard the|
 E3 [=DF] [EG]2 [CE]2 | [CE]2 [B,D]4 [DG]2 | [FA]3 G [GB]3 [DA] | [DG]6 ||"^Refrain" [B,D]2 | %18
w: be the old, old|sto- ry that|I have loved so|long.|I|
w: sa- tis- fies my|long- ings as|noth- ing else can|do.||
w: mes- sage of sal-|va- tion from|God's own Ho- ly|Word.||
 D3 [DF] [DA]3 [DB] | [DA]2 [DG]4 [DG]2 | [EG]3 [Ec] [Ec]2 [Ec]2 | [Ec]2 [DB]4 [DB]2 | %22
w: love to tell the|sto- ry, 'twill|be my theme in|glo- ry, to|
w: ||||
w: ||||
 [Gd]3 [DB] [DB][CA] G2 | [EA]2 [EG]4 [CE]2 | [B,D]2 [DG]2 [FA]3 [DG] | [DG]6 |] %26
w: tell the old, _ old|sto- ry of|Je- sus and his|love.|
w: ||||
w: ||||
V:2
 x2 | x8 | x8 | x4 E2 x2 | x6 D2 | x8 | x6 D2 | x4 D2 x2 | x8 | x8 | x8 | x8 | x8 | E3 x5 | x8 | %15
 x3 G x4 | x6 || x2 | D3 x5 | x8 | x8 | x8 | x6 B,D | x8 | x8 | x6 |] %26
V:3
 [G,,G,]2 | [G,,D,]3 [G,,G,] [G,,G,]2 G,2 | G,4 [G,,G,]2 [B,,G,]2 | %3
 [C,G,]3 [C,G,] [C,G,]2 [C,G,]2 | [G,,G,]6 G,2 | [D,C]3 [D,B,] [D,C]2 [D,D]2 | %6
 [G,,C]2 [G,,B,]4 [G,B,]2 | [G,B,]3 [G,D] DC [G,B,]2 | [D,D]6 [D,F,]2 | %9
 [D,F,]3 [D,G,] [D,A,]2 [D,A,]2 | [G,,A,]2 [G,,G,]4 G,2 | [E,G,]3 [E,A,] [E,B,]2 [E,B,]2 | %12
 [B,,B,]6 [B,,A,]2 | [C,G,]3 [C,G,] [C,G,]2 [C,G,]2 | [G,,G,]2 [G,,G,]4 [G,,B,]2 | %15
 [D,C]3 [D,B,] [D,D]3 [D,C] | [G,,B,]6 || [G,,G,]2 | [D,F,]3 [D,A,] [D,C]3 [D,D] | %19
 [G,,C]2 [G,,B,]4 [B,,G,]2 | [C,G,]3 [C,G,] [C,G,]2 [C,G,]2 | [G,,G,]2 [G,,G,]4 G,2 | %22
 [G,B,]3 [G,,G,] [G,,G,][A,,F,] [B,,G,]2 | [C,C]2 [C,C]4 [C,G,]2 | [D,G,]2 [D,B,]2 [D,C]3 [D,B,] | %25
 [G,,B,]6 |] %26
V:4
 x2 | x6 B,,D, | G,4 x4 | x8 | x6 G,,B,, | x8 | x8 | x4 G,2 x2 | x8 | x8 | x6 G,2 | x8 | x8 | x8 | %14
 x8 | x8 | x6 || x2 | x8 | x8 | x8 | x6 G,2 | x8 | x8 | x8 | x6 |] %26

